X: 4298
T: STRAND HORNPIPE
R: Hornpipe.
%R: hornpipe, reel
B: James Kerr "Merry Melodies" v.4 p.31 #298
Z: 2016 John Chambers <jc:trillian.mit.edu>
M: C|
L: 1/8
K: G
g>a |\
b>gd>B G>Bd>g | f>ec>A E2_E2 |\
[1,3 D>dc>A F>DE>F | G>AB>c d2 :|\
[2,4 D>dc>A F>DE>F | G2B2G2 |:\
A>G |\
F>GA>B c>DE>F |
G>AB>c d2A>G |\
F>GA>Bc>DE>F | G>AB>c d2g>a |\
b>gd>B G>Bd>g | f>ed>A E2_E2 |\
D>dc>A F>DE>F | G2B2G2 :|

%%sep 1 1 500
%%sep 1 1 500

